assets/images/Expo/Features/kid.svg

<svg width="56" height="56" viewBox="0 0 56 56" fill="none" xmlns="http://www.w3.org/2000/svg">
<circle cx="28" cy="28" r="28" fill="white"/>
<path fill-rule="evenodd" clip-rule="evenodd" d="M37.6371 25.555C36.9772 24.0362 35.9469 22.6993 34.6367 21.6617C33.3265 20.6241 31.7764 19.9176 30.1225 19.6042L31.6165 17.2616L30.1013 16.3335L28.13 19.4247C26.1219 19.4338 24.1606 20.0193 22.4883 21.1088C20.816 22.1982 19.5061 23.744 18.7203 25.555C17.6678 25.5747 16.6651 25.9982 15.9279 26.7346C15.1906 27.471 14.7776 28.4615 14.7776 29.4932C14.7776 30.5248 15.1906 31.5153 15.9279 32.2517C16.6651 32.9881 17.6678 33.4116 18.7203 33.4313C19.5094 35.2497 20.8269 36.8006 22.5087 37.8907C24.1905 38.9808 26.1623 39.5621 28.1787 39.5621C30.1951 39.5621 32.1669 38.9808 33.8487 37.8907C35.5305 36.8006 36.848 35.2497 37.6371 33.4313C38.6896 33.4116 39.6923 32.9881 40.4295 32.2517C41.1668 31.5153 41.5798 30.5248 41.5798 29.4932C41.5798 28.4615 41.1668 27.471 40.4295 26.7346C39.6923 25.9982 38.6896 25.5747 37.6371 25.555ZM39.1532 31.0259C38.7446 31.4355 38.1876 31.6707 37.6031 31.6805L36.4459 31.702L35.9929 32.7458C35.3411 34.2483 34.2527 35.5297 32.8632 36.4304C31.4738 37.3311 29.8447 37.8114 28.1787 37.8114C26.5128 37.8114 24.8837 37.3311 23.4942 36.4304C22.1048 35.5297 21.0164 34.2483 20.3646 32.7458L19.9115 31.702L18.7543 31.6805C18.1696 31.6697 17.6125 31.4346 17.2029 31.0255C16.7932 30.6165 16.5637 30.0663 16.5637 29.4932C16.5637 28.92 16.7932 28.3698 17.2029 27.9608C17.6125 27.5517 18.1696 27.3166 18.7543 27.3058L19.9115 27.2843L20.3646 26.2405C21.0164 24.738 22.1048 23.4567 23.4942 22.5559C24.8837 21.6552 26.5128 21.175 28.1787 21.175C29.8446 21.175 31.4738 21.6552 32.8632 22.5559C34.2527 23.4567 35.3411 24.738 35.9929 26.2405L36.4459 27.2843L37.6031 27.3058C38.0392 27.3139 38.4634 27.447 38.8231 27.6888C39.1829 27.9305 39.4625 28.2702 39.6274 28.666C39.7923 29.0617 39.8352 29.4961 39.751 29.9155C39.6667 30.335 39.4589 30.721 39.1532 31.0259ZM23.265 27.3039H25.4985V29.4928H23.265V27.3039ZM33.0925 27.3039H30.859V29.4928H33.0925V27.3039ZM28.1786 35.6218C28.7653 35.6218 29.3461 35.5086 29.8881 35.2886C30.4301 35.0686 30.9225 34.7461 31.3373 34.3396C31.7521 33.9331 32.0811 33.4505 32.3056 32.9193C32.5301 32.3882 32.6457 31.8189 32.6457 31.244H30.8447C30.8541 31.3352 30.8589 31.4278 30.8589 31.5214C30.8589 33.0017 29.6589 34.2016 28.1787 34.2016C26.6984 34.2016 25.4984 33.0017 25.4984 31.5214C25.4984 31.4278 25.5032 31.3352 25.5126 31.244H23.7116C23.7116 31.8189 23.8271 32.3882 24.0516 32.9193C24.2761 33.4505 24.6052 33.9331 25.02 34.3396C25.8577 35.1606 26.9939 35.6218 28.1786 35.6218Z" fill="#010107"/>
</svg>

<svg xmlns="http://www.w3.org/2000/svg" width="56" height="56" fill="none" viewBox="0 0 56 56"><circle cx="28" cy="28" r="28" fill="#fff"/><path fill="#010107" fill-rule="evenodd" d="M37.637 25.555a10.109 10.109 0 0 0-3-3.893 10.385 10.385 0 0 0-4.515-2.058l1.494-2.342-1.515-.928-1.971 3.09a10.43 10.43 0 0 0-5.642 1.685 10.121 10.121 0 0 0-3.768 4.446 4.06 4.06 0 0 0-2.792 1.18 3.898 3.898 0 0 0-1.15 2.758 3.9 3.9 0 0 0 1.15 2.759 4.06 4.06 0 0 0 2.792 1.18 10.124 10.124 0 0 0 3.789 4.459 10.429 10.429 0 0 0 5.67 1.671c2.016 0 3.988-.581 5.67-1.671s2.999-2.641 3.788-4.46a4.06 4.06 0 0 0 2.792-1.18 3.898 3.898 0 0 0 1.15-2.758 3.898 3.898 0 0 0-1.15-2.758 4.06 4.06 0 0 0-2.792-1.18zm1.516 5.47c-.408.41-.965.646-1.55.655l-1.157.022-.453 1.044a8.363 8.363 0 0 1-3.13 3.684 8.615 8.615 0 0 1-4.684 1.381 8.616 8.616 0 0 1-4.685-1.38 8.363 8.363 0 0 1-3.13-3.685l-.453-1.044-1.157-.022a2.254 2.254 0 0 1-1.551-.654c-.41-.41-.64-.96-.64-1.533s.23-1.123.64-1.532c.41-.41.967-.644 1.551-.655l1.157-.022.454-1.043a8.364 8.364 0 0 1 3.13-3.685 8.616 8.616 0 0 1 4.684-1.381c1.666 0 3.295.48 4.684 1.38a8.364 8.364 0 0 1 3.13 3.686l.453 1.043 1.157.022c.436.008.86.141 1.22.383.36.241.64.581.804.977a2.15 2.15 0 0 1-.474 2.36zm-15.888-3.721h2.233v2.189h-2.233v-2.19zm9.828 0h-2.234v2.189h2.233v-2.19zm-4.914 8.318c.586 0 1.167-.113 1.71-.333a4.474 4.474 0 0 0 1.448-.95c.415-.406.744-.889.969-1.42.224-.53.34-1.1.34-1.675h-1.801a2.68 2.68 0 1 1-5.332 0h-1.801a4.346 4.346 0 0 0 1.308 3.095 4.513 4.513 0 0 0 3.159 1.283z" clip-rule="evenodd"/></svg>
